X:3
T:Marsch  FC (5letras transposed)
%%MIDI program 21
R:march
M:2/4
L:1/8
K:F transpose=3 %%MIDI gchordon
f/f/ |"F"f2 cf | af ed | "C7".c2!>!e2 | "F"f2zc/c/ |: !>!"F"c2 AB | c3a/a/ | "Bb"gf ed | 
 "F"c3c/c/ | !>!"C7"c2 ef | g3c | gc ga | "F"f3c/c/ | c2AB | c3a/a/ | "Bb"ag fd | 
"F"c3c/c/ | "C7"ce gb | "F"ba fa/a/ | "C7"ag de |1 "F"ff fc/c/ :|2 "F"ff fc'/c'/ |: [K:C] "C"c'g ce | fe ee/f/ | 
"G7"ed dd/e/ | "C"dc cc'/c'/ | c'g eg | fe ee/f/ | "G7"e>d e>d |1 "C"cc' c'c'/c'/ :|2  "C"cc' c'c  || 
|: [K:F] "C7"b3a | g3c | "F"fe fg | a3 e/e/ | "C7"ed ef | .g2!>!"Bb"f2 | "C7"eg d'c' | "F"a3c | "C7"b3a | 
g3c | "F"fe fg | a3c/c/ | "C7"ce gb | "F"ba fa | "C7"ag de |1 "F"ff fc :|2 "F"ff f2z2 |] 
% mr09225

